src/Resource_Files/fluent/arrow-up.svg

<svg clip-rule="evenodd" fill-rule="evenodd" stroke-linejoin="round" stroke-miterlimit="2" viewBox="0 0 48 48" xmlns="http://www.w3.org/2000/svg"><path d="m18.23 20.475c1.158.83 2.77.002 2.77-1.422v-14.223c0-1.384-1.53-2.221-2.695-1.473l-10.47 6.716c-1.04.668-1.079 2.175-.074 2.895zm1.27-1.422c0 .203-.23.321-.396.203l-10.469-7.507c-.144-.103-.138-.318.01-.413l10.47-6.717c.166-.107.385.013.385.211z" fill="#1abc9c" fill-rule="nonzero" transform="matrix(0 2.00434 -2.00434 0 47.9342 -4.09114)"/></svg>

<?xml version="1.0" encoding="UTF-8" standalone="no"?>
<!DOCTYPE svg PUBLIC "-//W3C//DTD SVG 1.1//EN" "http://www.w3.org/Graphics/SVG/1.1/DTD/svg11.dtd">
<svg width="100%" height="100%" viewBox="0 0 48 48" version="1.1" xmlns="http://www.w3.org/2000/svg" xmlns:xlink="http://www.w3.org/1999/xlink" xml:space="preserve" xmlns:serif="http://www.serif.com/" style="fill-rule:evenodd;clip-rule:evenodd;stroke-linejoin:round;stroke-miterlimit:2;">
    <g transform="matrix(1.2273e-16,2.00434,-2.00434,1.2273e-16,47.9342,-4.09114)">
        <path d="M18.23,20.475C19.388,21.305 21,20.477 21,19.053L21,4.83C21,3.446 19.47,2.609 18.305,3.357L7.835,10.073C6.795,10.741 6.756,12.248 7.761,12.968L18.23,20.475ZM19.5,19.053C19.5,19.256 19.27,19.374 19.104,19.256L8.635,11.749C8.491,11.646 8.497,11.431 8.645,11.336L19.115,4.619C19.281,4.512 19.5,4.632 19.5,4.83L19.5,19.053Z" style="fill:rgb(26,188,156);fill-rule:nonzero;"/>
    </g>
</svg>
